X: 11417
T: Easter Breakfast
R: reel
M: 4/4
K: Amixolydian
|:Acde cdec|defd gdfd|gfda fece|dBgB dBGB|
Acde cdec|defd gdfd|gfdg fdgf|dBGB A4:|
|:gfdA GAgf|dAGA gfdf|eA~A2 BcdB|cAdA eAfA|
gfdA GAgf|dAGA gfdf|eA~A2 cdec|dBgB BA~A2:|

